X: 12
I: linebreak $
T: Broome: The bonny bonny Broome
T: longways for four couples
P: Play 6 times
C: 
K: D major
M: 2/2
L: 1/4
"A"A | "A"A3/B/ A3/B/ | "D"A/G/F/E/ D3/A/ | "D"dd/e/ f/e/d/c/ | "G"B3"A"c | "D"d3/e/ fe/f/ | "D"dD/E/ FE/D/ | 
"Em"EE B3/G/ | "A"E4 || "A"A3/B/ A3/B/ | "D"A/G/F/E/ D3/A/ | "D"dd/e/ f/e/d/c/ | "G"B3"A"c | 
"D"d3/e/ fe/f/ | "D"dD/E/ FE/D/ | "Em"EE B3/G/ | "A"E4 |] 

